X:1
T: William Marshall's Compliments to Niel Gow
C:William Marshall
R:Strathspey
Q: 128
K:A
M:4/4
L:1/16
|:A3c A2E2 A2c2 A4|ABcB A2E2 F2B2 B4|c3B A2E2 Af3 e3d|cdef edcB c2A2 A4|
A3c A2E2 A2c2 A4|ABcB A2E2 F2B2 B4|c3B A2E2 Af3 e3d|cdef edcB c2A2 A2fg|
a2c2 e2c2 a2c2 e3e|agfe fedc BAGA B2fg|a2c2 e2c2 a2c2 e3e|fedc Bcde c2A2 A2fg|
a2c2 e2c2 a2c2 e3e|agfe fedc BAGA B3c|A3c A2E2 F2c2 d3f|fedc Bcde c2A2 A4:|
